X: 10
T:Cairn on the Moor
% Nottingham Music Database
S:CDM
M:3/4
L:1/4
K:G
G/2A/2|"G"B3/2A/2B|"Em"G3/2F/2G|"D7"A3/2G/2A|"G"B2G|"Em"B3/2A/2B|"G"G3/2F/2G|\
"C/e"gfe|"G/b"d2"D7/a"c|
"G"B3/2A/2B|"Em"G3/2F/2G|"D7"A3/2G/2A|"G"B2G|"C"efg|"G"d3/2c/2B|"D7"cBA|\
"G"G2"D7"D||
"G"g3/2f/2g|"G/b"gdB|"C"edB|"G"dBG|"Em"g3/2f/2g|"G"gdB|"C"edB|"D"A3|
"Em"g3/2f/2g|"G"gdB|"C"edB|"G"dBG|"C"efg|"G"d3/2c/2B|"D7"cBA|"G"G2||


